X:115
T:Scampton Cade. Ru2.115
%%VWML:RutherfordVol2-2249-p58-0
F:http://www.vwml.org/record/RutherfordVol2/2249/p58
L:1/8
B:RUTHERFORD Complete Collection of 200 Country Dances Vol.2; 1759.
Z:vmp.Mike Hicken 2015 www.village-music-project.org.uk
M:C
Q:1/4=140
K:G
G/A/B/c/ dB gBdB|gBdB a A2 B|G/A/B/c/ dB gBdB|cAdc BG G2 :|
|:g>age a>baf|g>age bB2f|g>age a>baf|gd2c BG G2 :|
W:
W: Gallop down one Cu: up again & cast off .|
W: Gallop down another Cu: up again & cast off :|
W: Hands round 6 .|.  lead to the top foot it & cast
W: off :|.
T:Stur the Guill. Ru2.116
L:1/8
B:RUTHERFORD Complete Collection of 200 Country Dances Vol.2; 1759.
Z:vmp.Mike Hicken 2015 www.village-music-project.org.uk
M:C
Q:1/4=140
K:D
A|d2 de (d/c/B/A/) (G/F/E/D/)|d2 df eg (f/g/a)|d2 de (d/c/B/A/) (G/F/E/D/)|E=CCE =c2c||
e|dDDB AFED|dDDf eg (f/g/a) |dDDB AGFE|E=CCE =c2c :|
W:
W: The first & 2d Cu: foot it all 4 & Right & Left
W: half round .|  the same back again :|  cross over
W: two Cu: .|.  lead to the top & cast off :|.
